src/assets/images/navLogo.svg

<svg fill="none" height="40" viewBox="0 0 40 40" width="40" xmlns="http://www.w3.org/2000/svg"><path d="m28.744 28.1624c-1.6866-.0012-3.3039-.6714-4.4969-1.8636-1.1931-1.1922-1.8645-2.8089-1.867-4.4955v-8.8055h-3.1498c-.8956-.0106-1.7843.1567-2.6147.4921-.8305.3353-1.5861.8322-2.2231 1.4617-.637.6296-1.1428 1.3792-1.4879 2.2057-.3452.8264-.5229 1.7131-.5229 2.6087s.1777 1.7823.5229 2.6087c.3451.8264.8509 1.5761 1.4879 2.2056s1.3926 1.1264 2.2231 1.4618c.8304.3354 1.7191.5026 2.6147.492h1.9631v1.5527h-1.9631c-1.0928 0-2.1749-.2152-3.1844-.6334-1.0096-.4182-1.927-1.0312-2.6997-1.8039s-1.3856-1.69-1.8038-2.6996-.6334-2.0916-.6334-3.1844.2152-2.1748.6334-3.1844 1.0311-1.927 1.8038-2.6997 1.6901-1.3856 2.6997-1.8038c1.0095-.4182 2.0916-.6334 3.1844-.6334h4.7025v10.3591c.002 1.2749.5097 2.497 1.4116 3.3981.902.9011 2.1246 1.4076 3.3996 1.4084zm10.256-8.1624c0-10.47634-8.5237-19-19-19-10.47634 0-19 8.52366-19 19 0 10.4763 8.52366 19 19 19 10.4763 0 19-8.5237 19-19zm-1.5527 0c0 9.6206-7.8267 17.4473-17.4473 17.4473s-17.44732-7.8267-17.44732-17.4473 7.82672-17.44732 17.44732-17.44732 17.4473 7.82672 17.4473 17.44732z" fill="#281e35" stroke="#281e35"/></svg>

<svg width="40" height="40" viewBox="0 0 40 40" fill="none" xmlns="http://www.w3.org/2000/svg">
<path d="M28.744 28.1624C27.0574 28.1612 25.4401 27.491 24.2471 26.2988C23.054 25.1066 22.3826 23.4899 22.3801 21.8033V12.9978H19.2303C18.3347 12.9872 17.446 13.1545 16.6156 13.4899C15.7851 13.8252 15.0295 14.3221 14.3925 14.9516C13.7555 15.5812 13.2497 16.3308 12.9046 17.1573C12.5594 17.9837 12.3817 18.8704 12.3817 19.766C12.3817 20.6616 12.5594 21.5483 12.9046 22.3747C13.2497 23.2011 13.7555 23.9508 14.3925 24.5803C15.0295 25.2098 15.7851 25.7067 16.6156 26.0421C17.446 26.3775 18.3347 26.5447 19.2303 26.5341H21.1934V28.0868H19.2303C18.1375 28.0868 17.0554 27.8716 16.0459 27.4534C15.0363 27.0352 14.1189 26.4222 13.3462 25.6495C12.5735 24.8768 11.9606 23.9595 11.5424 22.9499C11.1242 21.9403 10.909 20.8583 10.909 19.7655C10.909 18.6727 11.1242 17.5907 11.5424 16.5811C11.9606 15.5715 12.5735 14.6541 13.3462 13.8814C14.1189 13.1087 15.0363 12.4958 16.0459 12.0776C17.0554 11.6594 18.1375 11.4442 19.2303 11.4442H23.9328V21.8033C23.9348 23.0782 24.4425 24.3003 25.3444 25.2014C26.2464 26.1025 27.469 26.609 28.744 26.6098V28.1624ZM39 20C39 9.52366 30.4763 1 20 1C9.52366 1 1 9.52366 1 20C1 30.4763 9.52366 39 20 39C30.4763 39 39 30.4763 39 20ZM37.4473 20C37.4473 29.6206 29.6206 37.4473 20 37.4473C10.3794 37.4473 2.55268 29.6206 2.55268 20C2.55268 10.3794 10.3794 2.55268 20 2.55268C29.6206 2.55268 37.4473 10.3794 37.4473 20Z" fill="#281E35" stroke="#281E35"/>
</svg>
